X:1
T:Title
%%score { ( 1 3 ) | ( 2 4 ) }
L:1/8
M:3/4
K:Db
V:1 treble nm="Grand Piano"
V:3 treble 
V:2 bass 
V:4 bass 
V:1
 z2 z2[Q:1/4=100] [Ec]2 | [Ec]2 [Fd]2 [Ec]2 | A2- [EA]2 [A,GA]2 | [FA]2 =G2 [A,DF]2 | %4
 [A,CE]4 [A,CE]2 | E2- [CE]2 E2 | E4 z2 | [CE]6- |[M:2/4] [CE]2 z2 |[M:4/4] (3EAc e>=d e4 | %10
 [Ed]2 [Ec]>[=D_c] [E=c]4 | z4 [Fd]4 |[M:3/4] [DE=G]2 [CEA]4- | [CEA]2 z2 z2 |] %14
V:2
 z2 z2 [A,,A,]2 | [A,,A,]4 [A,,A,]2 | A,,2- [A,,C]2 C,2 | z2 E2 D,2 | A,,4 A,,2 | z2 A,2 [E,B,D]2 | %6
 [=G,B,]2 A,2 [E,B,D]2 | [A,,A,]6- |[M:2/4] [A,,A,]2 z2 | %9
[M:4/4][K:treble] (3:2:2C2 E [A,CA]>[A,_CA] [A,=CA]4 | [A,,B,]2 [A,,A,]>[A,,A,] [A,,A,]4 | %11
 [C,A,]2 [D,A,]>[C,A,] [B,,A,]2 E,2 |[M:3/4] E,2 A,,4- | A,,2 z2 z2 |] %14
V:3
 x6 | x6 | C2 z2 z2 | A,4 z2 | x6 | [=G,B,]2 z2 z2 | z2 C2 E2 | x6 |[M:2/4] x4 |[M:4/4] x8 | x8 | %11
 [GA]2 [FB]>[Fc] z2 =G,2 |[M:3/4] x6 | x6 |] %14
V:4
 x6 | x6 | E,2 z2 z2 | D,4 z2 | x6 | E,4 z2 | E,4 z2 | x6 |[M:2/4] x4 | %9
[M:4/4][K:treble] A,2 z2 z4 | x8 | x8 |[M:3/4] x6 | x6 |] %14

